svgs/mont_bell.svg

<svg width="192" height="192" viewBox="0 0 192 192" fill="none" xmlns="http://www.w3.org/2000/svg">
<path d="M23 138.788L25.9536 129.124C26.5284 127.243 27.9883 125.763 29.8612 125.163L30.922 124.824C32.8767 124.197 34.3756 122.616 34.8958 120.63L37.0526 112.397C37.2676 111.576 37.6543 110.81 38.1871 110.15L48.3161 97.5958C48.7634 97.0414 49.3059 96.5711 49.918 96.2069L54.8933 93.2471C56.0842 92.5386 56.9931 91.4398 57.4658 90.1372L65.4487 68.1376C65.8949 66.9079 66.7307 65.8578 67.8289 65.147L84.4386 54.3978C85.8178 53.5052 87.5027 53.2172 89.1001 53.601L91.3009 54.1298C92.8897 54.5115 94.2541 55.5247 95.0789 56.9354L101.056 67.1579C101.37 67.6958 101.599 68.2794 101.734 68.8878L103.093 75.0182C103.157 75.3087 103.243 75.594 103.35 75.8717L104.521 78.9211C105.085 80.3894 106.204 81.5775 107.635 82.2295L113.318 84.8179C113.935 85.0989 114.5 85.4824 114.988 85.9521L118.072 88.9152C119.953 90.723 122.926 90.723 124.807 88.9152V88.9152C126.862 86.9403 130.167 87.1495 131.957 89.3676L139.609 98.8512C140.028 99.371 140.358 99.9572 140.584 100.586L143.206 107.863C143.44 108.515 143.561 109.203 143.561 109.896V113.047C143.561 115.684 145.282 118.012 147.804 118.784L152.209 120.133C152.709 120.286 153.187 120.504 153.631 120.781L158.075 123.557C158.353 123.731 158.644 123.881 158.947 124.007L162.385 125.439C163.454 125.884 164.371 126.629 165.026 127.584L166.335 129.491C166.636 129.93 166.877 130.406 167.052 130.907L168.664 135.524C168.887 136.16 169 136.829 169 137.503V138.788" stroke="black" stroke-width="14" stroke-linecap="round"/>
</svg>

<svg xmlns="http://www.w3.org/2000/svg" width="192" height="192" fill="none"><path stroke="#000" stroke-linecap="round" stroke-width="14" d="m23 138.788 2.954-9.664a6 6 0 0 1 3.907-3.961l1.061-.339a6 6 0 0 0 3.974-4.194l2.157-8.233a6 6 0 0 1 1.134-2.247l10.13-12.554a6 6 0 0 1 1.601-1.39l4.975-2.959a6 6 0 0 0 2.573-3.11l7.983-22a6 6 0 0 1 2.38-2.99l16.61-10.75a6 6 0 0 1 4.661-.796l2.2.529a6 6 0 0 1 3.779 2.805l5.977 10.223c.314.538.543 1.121.678 1.73l1.359 6.13q.096.436.257.854l1.171 3.05a6 6 0 0 0 3.114 3.308l5.683 2.588a6 6 0 0 1 1.67 1.134l3.084 2.963a4.86 4.86 0 0 0 6.735 0v0a4.86 4.86 0 0 1 7.15.453l7.652 9.483c.419.52.749 1.106.975 1.735l2.622 7.277a6 6 0 0 1 .355 2.033v3.151a6 6 0 0 0 4.243 5.737l4.405 1.349c.5.153.978.371 1.422.648l4.444 2.776q.417.261.872.45l3.438 1.432a6 6 0 0 1 2.641 2.145l1.309 1.907c.301.439.542.915.717 1.416l1.612 4.617a6 6 0 0 1 .336 1.979v1.285"/></svg>
